!!!OTL: Der j&auml;ger im Tannenholz (2-61) S. 188
!!!id: P0934
**kern
*clefG2
*k[f#]
*e:
{8d
=1
4d
8d
=2
8d
8e
8f#
=3
4.g
=4
4f#}
=5
{8e
=6
4e
8e
=7
4e
8f#
=8
4g
8e
=9
4f#}
=10
{16e
16e
=11
8e
8f#
8g
=12
4g
8a
=13
4.b
=14
8b
8a}
=15
{8f#
=16
8g
8f#
8e
=17
4f#
8d#
=18
[4.e
=19
4e]}
==
*-
!!!minrhy: 16
!!!meters: 3/8 ]  ZZ[4
!!!cut: Der j&auml;ger im Tannenholz (2-61) S. 188
!!!reg: Lothringen
!!!trd: PINCK, Louis: Verklingende Weisen, Bd 2, Metz 1928
!!!rhy1: X_  X__X_  X_X_X_  X__.  X__   (x2)
!!!rhy2: X_  X__X_  X__X_  X__X_  X__
!!!key: P0934  16  E 3/8 ]  ZZ[4
!!!mod: HEPTATONIK MOLL ?]  AMBITUS[6
!!!kad: 2241
!!!akz: -7b-7b3b2_113b2_13b55_3b211_
!!!fot: 'a__b__c__d__
!!!for: 'a__b__c__cw_
!!!fok: '/__/__/__\__
!! PHRAS[AUFTAKTIG]
!!!fkt: Liebe, Mord
!! LOTH VKL
!! PR[32] 2K[3] 2G[14] 3K[3] 3G[0] 4A[5] 4Ü[0] 5A[3] 6K[3] 6G[3]
!! 7K[0] 7G[0] 8A[0] MEHR[0] SI[32] ABS[37] SR[16] SP[16]
!! ST[9] 2k[5] 2g[16] 3k[0] 3g[3] 4d[3] 4ü[3] 5d[5] 6k[0] 6g[0]
!! 7k[0] 7g[0] 8d[0] mehr[0] si[35] dm[-3] sr[22] sp[14]
!! 1F[15] 2F[49] 3F[22] 4F[2] LF[0] 2P[10] 3P[2] 4P[0] TRI[0] DF[6] AB[41]
!! TF[0] U3K[0] U3[0] U4[0] U4Ü[0] U5[18] U6K[0] U6[3] U7K[0] U7[5]
!! N1[18] N2K[0] N2[26] N3K[0] N3[21] N4[5] N4Ü[0] N5[3] N6K[0] N6[0]
!!!n7k: 0] N7[0] O1[0] O2K[0] O2[0] O3K[0] O3[0] HÖ[0
!!!RNB: symbol: &auml;      = a umlaut  (UTF-8: Å„)
